Sources/FrostedUI/Resources/Icons.xcassets/refund20.imageset/refund-20.svg

<svg width="20" height="20" viewBox="0 0 20 20" fill="none" xmlns="http://www.w3.org/2000/svg" data-fui-icon="true">
  <path
    d="M10.0762 1.25C6.18069 1.25001 3.87326 3.40919 2.75 5.62598V4C2.75 3.58579 2.41421 3.25 2 3.25C1.58579 3.25 1.25 3.58579 1.25 4V7.38477C1.25008 8.30186 1.98831 9.05749 2.91406 9.05762H5C5.41421 9.05762 5.75 8.72183 5.75 8.30762C5.74996 7.89344 5.41419 7.55762 5 7.55762H3.59668C4.18646 5.41151 6.13009 2.75001 10.0762 2.75C14.4939 2.75 17.25 6.06085 17.25 10C17.25 13.9392 14.4939 17.25 10.0762 17.25C6.92237 17.25 4.40139 15.2453 3.39648 12.8525C3.23613 12.4707 2.79688 12.291 2.41504 12.4512C2.03314 12.6116 1.85328 13.0517 2.01367 13.4336C3.23203 16.3343 6.26722 18.75 10.0762 18.75C15.4108 18.75 18.75 14.6762 18.75 10C18.75 5.32377 15.4108 1.25 10.0762 1.25ZM9.99609 3.96973C9.58193 3.96978 9.24609 4.30555 9.24609 4.71973V5.1416C7.49445 5.42825 6.51478 6.70614 6.51465 7.92676C6.51466 8.43172 6.62534 8.88115 6.85547 9.26562C7.08471 9.64838 7.4036 9.9194 7.74414 10.1152C8.19771 10.376 8.73963 10.526 9.24609 10.6357V13.3721C8.88434 13.278 8.63541 13.1218 8.46094 12.9648C8.16984 12.7029 8.02738 12.3866 7.96582 12.1895C7.84218 11.7945 7.42152 11.574 7.02637 11.6973C6.63113 11.8207 6.41093 12.2414 6.53418 12.6367C6.64775 13.0004 6.90543 13.5836 7.45703 14.0801C7.89192 14.4714 8.47859 14.7795 9.24609 14.9023V15.2803C9.2461 15.6945 9.58193 16.0302 9.99609 16.0303C10.4103 16.0303 10.7461 15.6945 10.7461 15.2803V14.9004C12.4986 14.614 13.4774 13.3366 13.4775 12.1162C13.4775 11.6113 13.3669 11.1618 13.1367 10.7773C12.9075 10.3945 12.5886 10.1236 12.248 9.92773C11.7945 9.66692 11.2526 9.51595 10.7461 9.40625L10.7461 6.66504C11.6861 6.89301 11.9523 7.52744 11.9932 7.72754C12.0759 8.13302 12.4714 8.39476 12.877 8.3125C13.2827 8.2298 13.5455 7.83356 13.4629 7.42773C13.3047 6.65157 12.5412 5.41175 10.7461 5.1377V4.71973C10.7461 4.30551 10.4103 3.96973 9.99609 3.96973ZM10.7461 10.9492C11.0452 11.0257 11.2964 11.1105 11.5 11.2275C11.6714 11.3261 11.7801 11.4318 11.8496 11.5479C11.9182 11.6624 11.9775 11.8359 11.9775 12.1162C11.9774 12.4671 11.6749 13.1344 10.7461 13.373V10.9492ZM9.24609 9.09375C8.94687 9.01702 8.69588 8.93156 8.49219 8.81445C8.32083 8.7159 8.21212 8.61112 8.14258 8.49512C8.07401 8.38053 8.01466 8.20706 8.01465 7.92676C8.01479 7.57641 8.31714 6.90775 9.24609 6.66895L9.24609 9.09375Z"
    fill="currentColor"
  />
</svg>

<svg xmlns="http://www.w3.org/2000/svg" width="20" height="20" fill="none" data-fui-icon="true" viewBox="0 0 20 20"><path fill="currentColor" d="M10.076 1.25c-3.895 0-6.203 2.16-7.326 4.376V4a.75.75 0 0 0-1.5 0v3.385c0 .917.738 1.672 1.664 1.673H5a.75.75 0 0 0 0-1.5H3.597c.59-2.146 2.533-4.808 6.48-4.808 4.417 0 7.173 3.31 7.173 7.25s-2.756 7.25-7.174 7.25c-3.154 0-5.675-2.005-6.68-4.398a.75.75 0 1 0-1.382.582c1.218 2.9 4.253 5.316 8.062 5.316 5.335 0 8.674-4.074 8.674-8.75s-3.34-8.75-8.674-8.75m-.08 2.72a.75.75 0 0 0-.75.75v.422c-1.752.286-2.731 1.564-2.731 2.785 0 .505.11.954.34 1.339.23.382.549.653.89.85.453.26.995.41 1.501.52v2.736a1.84 1.84 0 0 1-.785-.407 1.8 1.8 0 0 1-.495-.775.75.75 0 0 0-1.432.447c.114.363.371.947.923 1.443.435.391 1.022.7 1.79.822v.378a.75.75 0 0 0 1.5 0v-.38c1.752-.286 2.73-1.563 2.73-2.784 0-.505-.11-.954-.34-1.339a2.4 2.4 0 0 0-.889-.85c-.453-.26-.995-.411-1.502-.52V6.664c.94.228 1.206.862 1.247 1.063a.75.75 0 1 0 1.47-.3c-.158-.776-.922-2.016-2.717-2.29V4.72a.75.75 0 0 0-.75-.75m.75 6.98c.3.076.55.16.754.277.171.1.28.205.35.32.068.115.127.289.127.57 0 .35-.302 1.017-1.23 1.256zm-1.5-1.856a3 3 0 0 1-.754-.28.9.9 0 0 1-.35-.319c-.068-.114-.127-.288-.127-.568 0-.35.302-1.02 1.231-1.258z"/></svg>
